assets/report/china-popculture/D.svg

<svg fill="none" height="19" viewBox="0 0 19 19" width="19" xmlns="http://www.w3.org/2000/svg"><path d="m9.38867 18.4697c4.82523 0 8.81543-3.9902 8.81543-8.8154 0-4.83399-3.9902-8.815433-8.82422-8.815433-4.82519 0-8.806638 3.981443-8.806638 8.815433 0 4.8252 3.990238 8.8154 8.815428 8.8154zm0-1.1426c-4.2539 0-7.67285-3.4277-7.67285-7.6728 0-4.25391 3.41895-7.68164 7.66406-7.68164 4.25392 0 7.68162 3.42773 7.69042 7.68164 0 4.2451-3.4277 7.6728-7.68163 7.6728zm-2.38183-3.7529h2.27636c2.3906 0 3.7793-1.4238 3.7793-3.98143 0-2.49609-1.3799-3.9375-3.7793-3.9375h-2.27636c-.34278 0-.52735.2461-.52735.60645v6.69728c0 .3691.18457.6152.52735.6152zm.52734-.8701v-6.17871h1.62598c1.75784 0 2.79494 1.10742 2.79494 3.08496 0 2.04785-1.0283 3.09375-2.79494 3.09375z" fill="#111"/></svg>

<svg width="19" height="19" viewBox="0 0 19 19" fill="none" xmlns="http://www.w3.org/2000/svg">
<path d="M9.38867 18.4697C14.2139 18.4697 18.2041 14.4795 18.2041 9.6543C18.2041 4.82031 14.2139 0.838867 9.37988 0.838867C4.55469 0.838867 0.573242 4.82031 0.573242 9.6543C0.573242 14.4795 4.56348 18.4697 9.38867 18.4697ZM9.38867 17.3271C5.13477 17.3271 1.71582 13.8994 1.71582 9.6543C1.71582 5.40039 5.13477 1.97266 9.37988 1.97266C13.6338 1.97266 17.0615 5.40039 17.0703 9.6543C17.0703 13.8994 13.6426 17.3271 9.38867 17.3271ZM7.00684 13.5742H9.2832C11.6738 13.5742 13.0625 12.1504 13.0625 9.59277C13.0625 7.09668 11.6826 5.65527 9.2832 5.65527H7.00684C6.66406 5.65527 6.47949 5.90137 6.47949 6.26172V12.959C6.47949 13.3281 6.66406 13.5742 7.00684 13.5742ZM7.53418 12.7041V6.52539H9.16016C10.918 6.52539 11.9551 7.63281 11.9551 9.61035C11.9551 11.6582 10.9268 12.7041 9.16016 12.7041H7.53418Z" fill="#111111"/>
</svg>
